svgs/paypal.svg

<svg width="192" height="192" viewBox="0 0 192 192" fill="none" xmlns="http://www.w3.org/2000/svg">
<path d="M34.3621 134.825L28.4271 133.944L34.3621 134.825ZM50.317 27.3559L56.2519 28.2371V28.2371L50.317 27.3559ZM69 92V86C66.0386 86 63.5201 88.1607 63.0698 91.0877L69 92ZM58.5021 160.825L64.4371 161.706L58.5021 160.825ZM86.0436 163.216L80.1134 162.304L86.0436 163.216ZM93 118V112C90.0386 112 87.5201 114.161 87.0698 117.088L93 118ZM56.5268 28H100V16H56.5268V28ZM40.297 135.706L56.2519 28.2371L44.382 26.4748L28.4271 133.944L40.297 135.706ZM42.2723 150H61V138H42.2723V150ZM69 98H100V86H69V98ZM66.9302 144.912L74.9302 92.9123L63.0698 91.0877L55.0698 143.088L66.9302 144.912ZM64.4371 161.706L66.9349 144.881L55.065 143.119L52.5672 159.944L64.4371 161.706ZM66.4154 176H78.1366V164H66.4154V176ZM91.9738 164.129L98.9302 118.912L87.0698 117.088L80.1134 162.304L91.9738 164.129ZM93 124H124V112H93V124ZM124 124C146.644 124 165 105.644 165 83H153C153 99.0163 140.016 112 124 112V124ZM165 83C165 64.5021 152.755 48.88 135.942 43.768L132.451 55.249C144.351 58.8673 153 69.9314 153 83H165ZM78.1366 176C85.0466 176 90.9231 170.958 91.9738 164.129L80.1134 162.304C79.9633 163.28 79.1238 164 78.1366 164V176ZM28.4271 133.944C27.1719 142.399 33.7184 150 42.2723 150V138C41.054 138 40.1172 136.918 40.297 135.706L28.4271 133.944ZM52.5672 159.944C51.3115 168.402 57.8647 176 66.4154 176V164C65.1939 164 64.2577 162.915 64.4371 161.706L52.5672 159.944ZM100 28C113.878 28 125.492 37.7548 128.334 50.7868L140.059 48.2301C136.04 29.8019 119.639 16 100 16V28ZM128.334 50.7868C128.769 52.7831 129 54.8612 129 57H141C141 53.9961 140.676 51.061 140.059 48.2301L128.334 50.7868ZM100 98C122.644 98 141 79.6437 141 57H129C129 73.0163 116.016 86 100 86V98ZM56.5268 16C50.4423 16 45.2756 20.4563 44.382 26.4748L56.2519 28.2371C56.2722 28.1009 56.3891 28 56.5268 28V16Z" fill="black"/>
</svg>

<svg xmlns="http://www.w3.org/2000/svg" width="192" height="192" fill="none" xmlns:v="https://vecta.io/nano"><path d="M34.362 134.825l-5.935-.881 5.935.881zM50.317 27.356l5.935.881h0l-5.935-.881zM69 92v-6a6 6 0 0 0-5.93 5.088L69 92zm-10.498 68.825l5.935.881-5.935-.881zm27.542 2.391l-5.93-.912 5.93.912zM93 118v-6a6 6 0 0 0-5.93 5.088L93 118zM56.527 28H100V16H56.527v12zm-16.23 107.706L56.252 28.237l-11.87-1.762-15.955 107.469 11.87 1.762zM42.272 150H61v-12H42.272v12zM69 98h31V86H69v12zm-2.07 46.912l8-52-11.86-1.825-8 52 11.86 1.824zm-2.493 16.794l2.498-16.825-11.87-1.762-2.498 16.825 11.87 1.762zM66.415 176h11.721v-12H66.415v12zm25.558-11.871l6.956-45.217-11.86-1.824-6.956 45.216 11.86 1.825zM93 124h31v-12H93v12zm31 0c22.644 0 41-18.356 41-41h-12c0 16.016-12.984 29-29 29v12zm41-41c0-18.498-12.245-34.12-29.058-39.232l-3.491 11.481C144.351 58.867 153 69.931 153 83h12zm-86.863 93a14 14 0 0 0 13.837-11.871l-11.86-1.825A2 2 0 0 1 78.137 164v12zm-49.71-42.056C27.172 142.399 33.718 150 42.272 150v-12a2 2 0 0 1-1.975-2.294l-11.87-1.762zm24.14 26C51.312 168.402 57.865 176 66.415 176v-12a2 2 0 0 1-1.978-2.294l-11.87-1.762zM100 28c13.878 0 25.492 9.755 28.334 22.787l11.725-2.557C136.04 29.802 119.639 16 100 16v12zm28.334 22.787A29.15 29.15 0 0 1 129 57h12a41.15 41.15 0 0 0-.941-8.77l-11.725 2.557zM100 98c22.644 0 41-18.356 41-41h-12c0 16.016-12.984 29-29 29v12zM56.527 16a12.28 12.28 0 0 0-12.145 10.475l11.87 1.762c.02-.136.137-.237.275-.237V16z" fill="#000"/></svg>
